images/Favicon_A.svg

<svg width="32" height="32" viewBox="0 0 32 32" fill="none" xmlns="http://www.w3.org/2000/svg">
<rect width="32" height="32" rx="6" fill="#1A1B22"/>
<path d="M10.5703 20.6328L11.3828 20.5156L14.8438 10.625H17.1797L20.6172 20.5156L21.4297 20.6328V22H17.5547V20.6328L18.3438 20.4922L17.8438 18.9297H14.1562L13.6562 20.4922L14.4453 20.6328V22H10.5703V20.6328ZM14.6953 17.25H17.3047L16.0234 13.2422H15.9766L14.6953 17.25Z" fill="white"/>
</svg>

<svg width="32" height="32" fill="none" xmlns="http://www.w3.org/2000/svg"><rect width="32" height="32" rx="6" fill="#1A1B22"/><path d="M10.57 20.633l.813-.117 3.46-9.891h2.337l3.437 9.89.813.118V22h-3.875v-1.367l.789-.14-.5-1.563h-3.688l-.5 1.562.79.14V22H10.57v-1.367zm4.125-3.383h2.61l-1.282-4.008h-.046l-1.282 4.008z" fill="#fff"/></svg>
